fs/task_list_add_20_filled.svg

<svg viewBox="0 0 20 20" fill="none" xmlns="http://www.w3.org/2000/svg" height="1em" width="1em">
  <path d="M5.85355 3.35355C6.04882 3.15829 6.04882 2.84171 5.85355 2.64645C5.65829 2.45118 5.34171 2.45118 5.14645 2.64645L3.5 4.29289L2.85355 3.64645C2.65829 3.45118 2.34171 3.45118 2.14645 3.64645C1.95118 3.84171 1.95118 4.15829 2.14645 4.35355L3.14645 5.35355C3.34171 5.54882 3.65829 5.54882 3.85355 5.35355L5.85355 3.35355ZM8.75 3.5C8.33579 3.5 8 3.83579 8 4.25C8 4.66421 8.33579 5 8.75 5H17.25C17.6642 5 18 4.66421 18 4.25C18 3.83579 17.6642 3.5 17.25 3.5H8.75ZM8.75 8.5C8.33579 8.5 8 8.83579 8 9.25C8 9.66421 8.33579 10 8.75 10H17.25C17.6642 10 18 9.66421 18 9.25C18 8.83579 17.6642 8.5 17.25 8.5H8.75ZM10.0224 15C10.0697 14.4753 10.1907 13.9718 10.3749 13.5H8.75C8.33579 13.5 8 13.8358 8 14.25C8 14.6642 8.33579 15 8.75 15H10.0224ZM5.85355 8.85355C6.04882 8.65829 6.04882 8.34171 5.85355 8.14645C5.65829 7.95118 5.34171 7.95118 5.14645 8.14645L3.5 9.79289L2.85355 9.14645C2.65829 8.95118 2.34171 8.95118 2.14645 9.14645C1.95118 9.34171 1.95118 9.65829 2.14645 9.85355L3.14645 10.8536C3.34171 11.0488 3.65829 11.0488 3.85355 10.8536L5.85355 8.85355ZM5.85355 13.1464C6.04882 13.3417 6.04882 13.6583 5.85355 13.8536L3.85355 15.8536C3.65829 16.0488 3.34171 16.0488 3.14645 15.8536L2.14645 14.8536C1.95118 14.6583 1.95118 14.3417 2.14645 14.1464C2.34171 13.9512 2.65829 13.9512 2.85355 14.1464L3.5 14.7929L5.14645 13.1464C5.34171 12.9512 5.65829 12.9512 5.85355 13.1464ZM20 15.5C20 17.9853 17.9853 20 15.5 20C13.0147 20 11 17.9853 11 15.5C11 13.0147 13.0147 11 15.5 11C17.9853 11 20 13.0147 20 15.5ZM16 13.5C16 13.2239 15.7761 13 15.5 13C15.2239 13 15 13.2239 15 13.5V15H13.5C13.2239 15 13 15.2239 13 15.5C13 15.7761 13.2239 16 13.5 16H15V17.5C15 17.7761 15.2239 18 15.5 18C15.7761 18 16 17.7761 16 17.5V16H17.5C17.7761 16 18 15.7761 18 15.5C18 15.2239 17.7761 15 17.5 15H16V13.5Z" fill="#212121"/>
</svg>

<svg viewBox="0 0 20 20" fill="none" xmlns="http://www.w3.org/2000/svg" height="1em" width="1em">
  <path d="M5.854 3.354a.5.5 0 1 0-.708-.708L3.5 4.293l-.646-.647a.5.5 0 1 0-.708.708l1 1a.5.5 0 0 0 .708 0l2-2ZM8.75 3.5a.75.75 0 0 0 0 1.5h8.5a.75.75 0 0 0 0-1.5h-8.5Zm0 5a.75.75 0 0 0 0 1.5h8.5a.75.75 0 0 0 0-1.5h-8.5Zm1.272 6.5a5.47 5.47 0 0 1 .353-1.5H8.75a.75.75 0 0 0 0 1.5h1.272ZM5.854 8.854a.5.5 0 1 0-.708-.708L3.5 9.793l-.646-.647a.5.5 0 1 0-.708.708l1 1a.5.5 0 0 0 .708 0l2-2Zm0 4.292a.5.5 0 0 1 0 .708l-2 2a.5.5 0 0 1-.708 0l-1-1a.5.5 0 0 1 .708-.708l.646.647 1.646-1.647a.5.5 0 0 1 .708 0ZM20 15.5a4.5 4.5 0 1 1-9 0 4.5 4.5 0 0 1 9 0Zm-4-2a.5.5 0 0 0-1 0V15h-1.5a.5.5 0 0 0 0 1H15v1.5a.5.5 0 0 0 1 0V16h1.5a.5.5 0 0 0 0-1H16v-1.5Z" fill="#212121"/>
</svg>
